X:278
T:Brumley Brae, The
C:William MacPherson (1919-1974)
B:The Scots Fiddle, J Murray Neil (Moffat 1991)
Z:Nigel Gatherer <gatherer@argonet.co.uk>
M:4/4
L:1/8
K:D
A2|d2 cd AFDd|cdAF DFAF|E2 EF GFED|CEGB =cA^cA|d2 cd AFDd|cdAF DFAF|
Begf edcB|AGFE D2:|a2|^gafd Aa^ga|fdAa ^gafd|eBBe bagf|
edcB A^ABc|d2 cd AFDd|cdAF DFAF|G,B,DB, A,CEG|F2 D2 D2:|
<end>
<start>
